assets/icon.svg

<?xml version="1.0" encoding="utf-8"?>
<!-- Generator: Adobe Illustrator 15.1.0, SVG Export Plug-In . SVG Version: 6.00 Build 0)  -->
<!DOCTYPE svg PUBLIC "-//W3C//DTD SVG 1.1//EN" "http://www.w3.org/Graphics/SVG/1.1/DTD/svg11.dtd">
<svg version="1.1" id="Ebene_1" xmlns="http://www.w3.org/2000/svg" xmlns:xlink="http://www.w3.org/1999/xlink" x="0px" y="0px"
	 width="100px" height="100px" viewBox="0 0 100 100" enable-background="new 0 0 100 100" xml:space="preserve">
<g>
	<path fill="#1A171B" d="M36.378-0.028V44.58l13.689-5.873l13.557,5.873V-0.028H36.378z M56.628,31.127l-6.622-4.771l-6.623,4.771
		l2.491-7.772l-6.583-4.821l8.161-0.033l2.555-7.752L52.56,18.5l8.162,0.033l-6.583,4.821L56.628,31.127z"/>
	<g>
		<path fill="#1A171B" d="M14.442,69.082l-1.896-5.641H12.44l-2.001,5.641H9.181l-3.093-9.719h1.213l0.167,0.939l2.365,7.43h0.106
			l2.093-5.914l-0.818-2.455h1.242l0.229,1.045l2.396,7.324h0.092l2.638-7.369l0.228-1h1.152l-3.487,9.719H14.442z"/>
		<path fill="#1A171B" d="M28.226,65.398c0.02,1.192-0.293,2.123-0.94,2.79c-0.646,0.667-1.566,1.001-2.76,1.001
			c-1.143,0-2.02-0.318-2.631-0.955c-0.612-0.638-0.908-1.537-0.887-2.699l0.015-1.318l-0.015-4.854h1.197l-0.045,6.021
			c-0.02,1.83,0.8,2.745,2.457,2.745c1.679,0,2.507-0.864,2.487-2.594l-0.061-6.172h1.213l-0.016,4.943L28.226,65.398z"/>
		<path fill="#1A171B" d="M38.795,69.082h-1.273l-5.02-7.778H32.41l-0.015,4.58l0.045,3.198h-1.137l0.076-2.881l-0.045-6.838h1.273
			l5.004,7.778h0.106l-0.016-7.719l1.152-0.091l-0.091,6.898L38.795,69.082z"/>
		<path fill="#1A171B" d="M48.894,60.486c0.738,0.787,1.107,1.92,1.107,3.396c0,1.709-0.399,3.019-1.198,3.928
			s-1.946,1.364-3.442,1.364c-0.99,0-2.041-0.03-3.154-0.092h-0.015l0.076-2.926l-0.076-6.793h0.015l3.504-0.062
			C47.094,59.303,48.155,59.697,48.894,60.486z M47.931,67.15c0.551-0.673,0.827-1.677,0.827-3.011c0-2.548-1.046-3.821-3.14-3.821
			c-0.637,0-1.369,0.021-2.197,0.062l-0.061,5.672l0.045,2.017c0.707,0.062,1.426,0.092,2.152,0.092
			C46.589,68.158,47.38,67.822,47.931,67.15z"/>
		<path fill="#1A171B" d="M57.977,69.082h-5.459l0.076-2.926l-0.076-6.793h5.474l0.062,0.121l-0.091,0.939l-2.29-0.047l-1.925,0.031
			l-0.031,3.185l1.82,0.03l1.606-0.045l0.091,0.104l-0.105,0.94l-1.698-0.03L53.7,64.607l-0.015,1.441l0.046,2.017l1.926,0.015
			l2.334-0.061l0.076,0.121L57.977,69.082z"/>
		<path fill="#1A171B" d="M66.831,68.795l-0.014,0.15c-0.365,0.143-0.738,0.232-1.123,0.273l-0.166-0.105
			c-0.83-1.244-1.572-2.457-2.229-3.641h-1.774v0.577l0.062,3.032h-1.229l0.076-2.928l-0.076-6.793l2.973-0.016
			c0.949,0,1.686,0.24,2.205,0.721c0.521,0.48,0.781,1.165,0.781,2.055c0,0.668-0.175,1.267-0.522,1.797
			c-0.349,0.531-0.841,0.943-1.479,1.236C64.981,66.258,65.821,67.471,66.831,68.795z M63.36,64.488
			c1.131-0.322,1.697-1.076,1.697-2.259c0-1.202-0.667-1.829-2.001-1.881l-1.471,0.046l-0.046,4.049L63.36,64.488z"/>
		<path fill="#1A171B" d="M74.05,69.082h-4.792l0.076-2.926l-0.076-6.793h1.243l-0.076,6.688l0.045,2.018h3.594l0.092,0.104
			L74.05,69.082z"/>
		<path fill="#1A171B" d="M77.386,69.082h-1.229l0.076-2.926l-0.076-6.793h1.244l-0.076,6.688L77.386,69.082z"/>
		<path fill="#1A171B" d="M85.573,59.742l-0.197,1.168l-0.213,0.062c-0.605-0.465-1.243-0.696-1.91-0.696
			c-0.374,0-0.7,0.074-0.979,0.227c-0.277,0.152-0.49,0.35-0.637,0.592s-0.22,0.495-0.22,0.758c0,0.273,0.083,0.514,0.25,0.721
			s0.376,0.387,0.629,0.539c0.252,0.151,0.596,0.334,1.03,0.545c0.547,0.254,0.986,0.488,1.32,0.705
			c0.332,0.219,0.618,0.493,0.856,0.826c0.237,0.334,0.356,0.738,0.356,1.215c0,0.504-0.137,0.969-0.41,1.395
			c-0.272,0.425-0.656,0.764-1.151,1.017c-0.496,0.253-1.062,0.38-1.698,0.38c-0.93,0-1.8-0.229-2.607-0.684l0.151-1.243
			l0.167-0.075c0.354,0.344,0.746,0.598,1.176,0.766c0.428,0.166,0.842,0.25,1.235,0.25c0.384,0,0.726-0.075,1.022-0.228
			c0.299-0.151,0.527-0.354,0.684-0.606c0.157-0.252,0.234-0.521,0.234-0.805c0-0.424-0.161-0.766-0.484-1.023
			c-0.322-0.258-0.812-0.537-1.471-0.84c-0.536-0.264-0.965-0.498-1.289-0.705c-0.323-0.207-0.602-0.477-0.834-0.805
			s-0.35-0.729-0.35-1.205c0-0.496,0.135-0.951,0.402-1.365s0.643-0.739,1.122-0.979c0.479-0.236,1.028-0.355,1.646-0.355
			C84.102,59.287,84.825,59.439,85.573,59.742z"/>
		<path fill="#1A171B" d="M93.821,60.425l-1.697-0.091h-0.985l-0.046,5.717l0.046,3.031h-1.229l0.092-2.926l-0.076-5.822H88.94
			l-1.729,0.091l-0.076-0.121l0.091-0.94h6.596l0.092,0.121L93.821,60.425z"/>
	</g>
</g>
</svg>

<?xml version="1.0" encoding="UTF-8" standalone="no"?>
<!DOCTYPE svg PUBLIC "-//W3C//DTD SVG 1.1//EN" "http://www.w3.org/Graphics/SVG/1.1/DTD/svg11.dtd">
<svg width="100%" height="100%" viewBox="0 0 100 100" version="1.1" xmlns="http://www.w3.org/2000/svg" xmlns:xlink="http://www.w3.org/1999/xlink" xml:space="preserve" style="fill-rule:evenodd;clip-rule:evenodd;stroke-linejoin:round;stroke-miterlimit:1.41421;">
    <g transform="matrix(0.962556,0,0,0.962556,-0.761808,0.58883)">
        <g>
            <g>
                <g transform="matrix(1,0,0,1,0.273226,15.7534)">
                    <path d="M36.378,-0.028L36.378,44.58L50.067,38.707L63.624,44.58L63.624,-0.028L36.378,-0.028ZM56.628,31.127L50.006,26.356L43.383,31.127L45.874,23.355L39.291,18.534L47.452,18.501L50.007,10.749L52.56,18.5L60.722,18.533L54.139,23.354L56.628,31.127Z" style="fill:rgb(26,23,27);fill-rule:nonzero;"/>
                </g>
                <g transform="matrix(1,0,0,1,0.273226,15.7534)">
                    <path d="M14.442,69.082L12.546,63.441L12.44,63.441L10.439,69.082L9.181,69.082L6.088,59.363L7.301,59.363L7.468,60.302L9.833,67.732L9.939,67.732L12.032,61.818L11.214,59.363L12.456,59.363L12.685,60.408L15.081,67.732L15.173,67.732L17.811,60.363L18.039,59.363L19.191,59.363L15.704,69.082L14.442,69.082Z" style="fill:rgb(26,23,27);fill-rule:nonzero;"/>
                    <path d="M28.226,65.398C28.246,66.59 27.933,67.521 27.286,68.188C26.64,68.855 25.72,69.189 24.526,69.189C23.383,69.189 22.506,68.871 21.895,68.234C21.283,67.596 20.987,66.697 21.008,65.535L21.023,64.217L21.008,59.363L22.205,59.363L22.16,65.384C22.14,67.214 22.96,68.129 24.617,68.129C26.296,68.129 27.124,67.265 27.104,65.535L27.043,59.363L28.256,59.363L28.24,64.306L28.226,65.398Z" style="fill:rgb(26,23,27);fill-rule:nonzero;"/>
                    <path d="M38.795,69.082L37.522,69.082L32.502,61.304L32.41,61.304L32.395,65.884L32.44,69.082L31.303,69.082L31.379,66.201L31.334,59.363L32.607,59.363L37.611,67.141L37.717,67.141L37.701,59.422L38.853,59.331L38.762,66.229L38.795,69.082Z" style="fill:rgb(26,23,27);fill-rule:nonzero;"/>
                    <path d="M48.894,60.486C49.632,61.273 50.001,62.406 50.001,63.882C50.001,65.591 49.602,66.901 48.803,67.81C48.004,68.719 46.857,69.174 45.361,69.174C44.371,69.174 43.32,69.144 42.207,69.082L42.192,69.082L42.268,66.156L42.192,59.363L42.207,59.363L45.711,59.301C47.094,59.303 48.155,59.697 48.894,60.486ZM47.931,67.15C48.482,66.477 48.758,65.473 48.758,64.139C48.758,61.591 47.712,60.318 45.618,60.318C44.981,60.318 44.249,60.339 43.421,60.38L43.36,66.052L43.405,68.069C44.112,68.131 44.831,68.161 45.557,68.161C46.589,68.158 47.38,67.822 47.931,67.15Z" style="fill:rgb(26,23,27);fill-rule:nonzero;"/>
                    <path d="M57.977,69.082L52.518,69.082L52.594,66.156L52.518,59.363L57.992,59.363L58.054,59.484L57.963,60.423L55.673,60.376L53.748,60.407L53.717,63.592L55.537,63.622L57.143,63.577L57.234,63.681L57.129,64.621L55.431,64.591L53.7,64.607L53.685,66.048L53.731,68.065L55.657,68.08L57.991,68.019L58.067,68.14L57.977,69.082Z" style="fill:rgb(26,23,27);fill-rule:nonzero;"/>
                    <path d="M66.831,68.795L66.817,68.945C66.452,69.088 66.079,69.177 65.694,69.218L65.528,69.113C64.698,67.869 63.956,66.656 63.299,65.472L61.525,65.472L61.525,66.049L61.587,69.081L60.358,69.081L60.434,66.153L60.358,59.36L63.331,59.344C64.28,59.344 65.017,59.584 65.536,60.065C66.057,60.545 66.317,61.23 66.317,62.12C66.317,62.788 66.142,63.387 65.795,63.917C65.446,64.448 64.954,64.86 64.316,65.153C64.981,66.258 65.821,67.471 66.831,68.795ZM63.36,64.488C64.491,64.166 65.057,63.412 65.057,62.229C65.057,61.027 64.39,60.4 63.056,60.348L61.585,60.394L61.539,64.443L63.36,64.488Z" style="fill:rgb(26,23,27);fill-rule:nonzero;"/>
                    <path d="M74.05,69.082L69.258,69.082L69.334,66.156L69.258,59.363L70.501,59.363L70.425,66.051L70.47,68.069L74.064,68.069L74.156,68.173L74.05,69.082Z" style="fill:rgb(26,23,27);fill-rule:nonzero;"/>
                    <path d="M77.386,69.082L76.157,69.082L76.233,66.156L76.157,59.363L77.401,59.363L77.325,66.051L77.386,69.082Z" style="fill:rgb(26,23,27);fill-rule:nonzero;"/>
                    <path d="M85.573,59.742L85.376,60.91L85.163,60.972C84.558,60.507 83.92,60.276 83.253,60.276C82.879,60.276 82.553,60.35 82.274,60.503C81.997,60.655 81.784,60.853 81.637,61.095C81.49,61.337 81.417,61.59 81.417,61.853C81.417,62.126 81.5,62.367 81.667,62.574C81.834,62.781 82.043,62.961 82.296,63.113C82.548,63.264 82.892,63.447 83.326,63.658C83.873,63.912 84.312,64.146 84.646,64.363C84.978,64.582 85.264,64.856 85.502,65.189C85.739,65.523 85.858,65.927 85.858,66.404C85.858,66.908 85.721,67.373 85.448,67.799C85.176,68.224 84.792,68.563 84.297,68.816C83.801,69.069 83.235,69.196 82.599,69.196C81.669,69.196 80.799,68.967 79.992,68.512L80.143,67.269L80.31,67.194C80.664,67.538 81.056,67.792 81.486,67.96C81.914,68.126 82.328,68.21 82.721,68.21C83.105,68.21 83.447,68.135 83.743,67.982C84.042,67.831 84.27,67.628 84.427,67.376C84.584,67.124 84.661,66.855 84.661,66.571C84.661,66.147 84.5,65.805 84.177,65.548C83.855,65.29 83.365,65.011 82.706,64.708C82.17,64.444 81.741,64.21 81.417,64.003C81.094,63.796 80.815,63.526 80.583,63.198C80.351,62.87 80.233,62.469 80.233,61.993C80.233,61.497 80.368,61.042 80.635,60.628C80.902,60.214 81.278,59.889 81.757,59.649C82.236,59.413 82.785,59.294 83.403,59.294C84.102,59.287 84.825,59.439 85.573,59.742Z" style="fill:rgb(26,23,27);fill-rule:nonzero;"/>
                    <path d="M93.821,60.425L92.124,60.334L91.139,60.334L91.093,66.051L91.139,69.082L89.91,69.082L90.002,66.156L89.926,60.334L88.94,60.334L87.211,60.425L87.135,60.304L87.226,59.364L93.822,59.364L93.914,59.485L93.821,60.425Z" style="fill:rgb(26,23,27);fill-rule:nonzero;"/>
                </g>
            </g>
        </g>
    </g>
</svg>
